X:15
T: Die Geburt im Walde
N: Q0007A
O: Mitteleuropa, Deutschland (BRD) , Hessen, Bornich u.a.
N: Melodiewiederholung = Textwiederholung
R: Ballade, Geburt, Tod, Moral
M: 3/4
L: 1/8
K: Ab
E2 | A3GA2 | B2A2B2 | c3dcc | B2z2
E2 | A3GA2 | B2A2B2 | c3dcc | B2z2
ce | edd2Bd | c2cBAB | c2e2B2 | A2z2
ce | edd2Bd | c2cBAB | c2e2B2 | A2z2

